outputs/icons/date_time/clock_timer_round.svg

<svg xmlns="http://www.w3.org/2000/svg" width="1200" height="1200" fill="none"><path fill="#000" d="M750 100c0-27.614-22.385-50-50-50H500c-27.614 0-50 22.386-50 50s22.386 50 50 50h200c27.615 0 50-22.386 50-50M550 650c0 27.615 22.385 50 50 50s50-22.385 50-50V450c0-27.614-22.385-50-50-50s-50 22.386-50 50zm401.5-280.5 35.495-35.497c20.08-20.077 21.585-52.527 1.55-72.647-19.865-19.947-51.735-18.169-71.64 1.737L881 299c-77.5-62-175-99-281-99-248.5 0-450 201.5-450 450s201 450 450 450 450-201.5 450-450c0-106-37-203.5-98.5-280.5M600 1000c-193.5 0-350-156.5-350-350s156.5-350 350-350 350 156.5 350 350-156.5 350-350 350"/></svg>

<svg width="1200" height="1200" viewBox="0 0 1200 1200" fill="none" xmlns="http://www.w3.org/2000/svg"><path d="M750 100C750 72.386 727.615 50 700 50H500C472.386 50 450 72.386 450 100C450 127.614 472.386 150 500 150H700C727.615 150 750 127.614 750 100ZM550 650C550 677.615 572.385 700 600 700C627.615 700 650 677.615 650 650V450C650 422.386 627.615 400 600 400C572.385 400 550 422.386 550 450V650ZM951.5 369.5L986.995 334.003C1007.075 313.926 1008.58 281.476 988.545 261.356C968.68 241.409 936.81 243.187 916.905 263.093L881 299C803.5 237 706 200 600 200C351.5 200 150 401.5 150 650C150 898.5 351 1100 600 1100C849 1100 1050 898.5 1050 650C1050 544 1013 446.5 951.5 369.5ZM600 1000C406.5 1000 250 843.5 250 650C250 456.5 406.5 300 600 300C793.5 300 950 456.5 950 650C950 843.5 793.5 1000 600 1000Z" fill="#1D1E23"/></svg>
